X:44
T:Peggys Daughter. 2voices. Dix.44
M:3/8
L:1/8
Q:3/8=60
S:Anon. MS dated 1811, from Dixon collection, Holton le Moor, Lincs.
R:waltz
N:Repeat signs added at start
O:England;Lincolnshire;Holton le Moor
Z:vmp.R.Greig 2012 <http://www.village-music-project.org.uk>
K:G
[V:1]|:BGG|ced|cBA|{G}FED|BGG|”tr”e2d|cBA|[G3D3B,3]:|
[V:2]|:G,G,,B,,|C,CB,|A,D,D,|D,A,F,|G,G,,B,,|C,CB,|CDD,|G,D,G,,:|
[V:1]|:gg/a/g/a/|ff/a/g/a/|ee/f/g/e/|d2d|g/f/g/a/g/a/|f/e/f/g/f/g/|e/d/e/f/e/f/|H[d2B2]e//d//c//B//|
[V:2]|:G,2G,|D,2D,|G,A,A,,|D,/E,/F,/E,/F,/D,/|G,2G,|D,2D,|G,A,A,,|HD,2z|
[V:1]BGG|c/d/e/d/c/B/|A/B/c/B/A/G/|”tr”F>E D//E//F//G//|BGG|”tr”e2d|cBA|G3:|
[V:2]”pia”G,G,,B,,|C,CB,|A,D,D,|D,A,F,|G,G,,B,,|C,CB,|CDD,|G,D,G,,:|

